!!!SOCIAL_FUNCTION:	woman's game songs
!!!PDT:	1958
!!!OTL: No_40_Woman's_Game_Song_(d).krn
!!!REG: Northern California
!!!LANG: Non-Tone
!!!LING_GROUP: Penutian
**kern
*staff1
=1-
=
*clefF4
*k[b-e-]
*M3/4
4d\
8.d\L
16c\Jk
8B-\
8r
=2
*M5/8
12d\L
12c\
12B-\J
8F\L
16F\L
16F\J
8B-\J
=3
*M3/4
8.c\L
16B-\Jk
8G\L
16G\L
16G\JJ
8G\
8r
=4
*M5/8
8.c\L
16B-\K
8F\
16F\L
16F\J
8B-\J
=5
*M3/4
8.c\L
16B-\Jk
8G\L
16G\L
16G\JJ
8G\
8r
=6
*M5/8
8.c\L
16B-\K
8F\
16F\L
16F\
16B-\JJ
16r
==:|!
*-
